dist/assets/uwm-icons/icon_medical_specialists.svg

<?xml version="1.0" encoding="UTF-8"?>
<svg width="24px" height="24px" viewBox="0 0 24 24" version="1.1" xmlns="http://www.w3.org/2000/svg" xmlns:xlink="http://www.w3.org/1999/xlink">
    <!-- Generator: Sketch 48.2 (47327) - http://www.bohemiancoding.com/sketch -->
    <title>icon_medical_specialists</title>
    <desc>Created with Sketch.</desc>
    <defs></defs>
    <g id="Icons" stroke="none" stroke-width="1" fill="none" fill-rule="evenodd">
        <g id="icon_medical_specialists">
            <rect id="Rectangle" fill="#FFFFFF" x="0" y="0" width="24" height="24"></rect>
            <path d="M21,15.0441341 C21,14.3266569 20.4200341,13.7447131 19.7049954,13.7447131 C18.9890652,13.7447131 18.4090993,14.3266569 18.4090993,15.0441341 C18.4090993,15.5129097 18.6587387,15.9199573 19.0291858,16.1485301 C18.4857742,18.3613479 16.4966828,20.0096668 14.1264455,20.0096668 C11.3385079,20.0096668 9.0708011,17.7342263 9.0708011,14.9372282 L9.0708011,11.6074899 C11.1593025,11.273353 12.7618985,9.45953132 12.7618985,7.27176263 L12.7618985,4.5069705 C12.7618985,3.67587784 12.087872,3 11.259604,3 L10.1701062,3 C9.89728596,3 9.67662253,3.22141597 9.67662253,3.49516662 C9.67662253,3.76891727 9.89728596,3.99033324 10.1701062,3.99033324 L11.259604,3.99033324 C11.5435689,3.99033324 11.7744854,4.22203723 11.7744854,4.5069705 L11.7744854,7.27176263 C11.7744854,9.14954897 10.2521306,10.6770955 8.38072637,10.6770955 C6.50932215,10.6770955 4.98696735,9.14954897 4.98696735,7.27176263 L4.98696735,4.5069705 C4.98696735,4.22203723 5.21832962,3.99033324 5.5018487,3.99033324 L6.59134653,3.99033324 C6.86416678,3.99033324 7.08483021,3.76891727 7.08483021,3.49516662 C7.08483021,3.22141597 6.86416678,3 6.59134653,3 L5.5018487,3 C4.67402648,3 4,3.67587784 4,4.5069705 L4,7.27176263 C4,9.59506473 5.80676544,11.4979002 8.08383375,11.6526677 L8.08383375,14.9372282 C8.08383375,18.2799384 10.7942048,21 14.1264455,21 C16.9883834,21 19.3871509,18.9902587 20.0072374,16.3046395 C20.5765045,16.1673169 21,15.6569419 21,15.0441341" id="Fill-103" fill="#000000"></path>
        </g>
    </g>
</svg>

<svg width="24" height="24" xmlns="http://www.w3.org/2000/svg"><g fill="none" fill-rule="evenodd"><path fill="#FFF" d="M0 0h24v24H0z"/><path d="M21 15.044c0-.717-.58-1.3-1.295-1.3a1.298 1.298 0 0 0-.676 2.405c-.543 2.212-2.532 3.86-4.903 3.86-2.787 0-5.055-2.275-5.055-5.072v-3.33a4.394 4.394 0 0 0 3.69-4.335V4.507c0-.831-.673-1.507-1.501-1.507h-1.09a.494.494 0 0 0 0 .99h1.09c.284 0 .514.232.514.517v2.765a3.403 3.403 0 0 1-3.393 3.405 3.403 3.403 0 0 1-3.394-3.405V4.507c0-.285.231-.517.515-.517h1.09a.494.494 0 0 0 0-.99h-1.09C4.674 3 4 3.676 4 4.507v2.765a4.392 4.392 0 0 0 4.084 4.38v3.285c0 3.343 2.71 6.063 6.042 6.063 2.862 0 5.261-2.01 5.881-4.695.57-.138.993-.648.993-1.26" fill="#000"/></g></svg>
